X: 8
T: Saint Anne's
R: reel
M: 4/4
L: 1/8
K: Dmin
de|:"Dm" f2fg "Am" fedB|"Dm" A2F2F2A2 |"Gm" B2GA BcdB|"F"A2F2 F2de|
"Dm" f2fg "Am" fedB|"Dm" A2F2F2A2 |"Gm" B2d2 "Am"cdec|1 "Dm" d2de d2de:|2 "Dm" d2de d2ag|]
|:"Dm" f2d2 defg | "Gm" a2gf g2gf | "Am" edcB Aceg|"F"b2a2 a2g2|
"Dm"f2d2 defg|"Gm"a2gf g2gf|"Am"edcB ABce|1"Dm"f2f2 d2ag:|2"Dm"f2"Am"d2"Dm"d4|]


Tune 103	Setting 103

